X:1492
T:Menuett ur Sven Donats notbok
T:(MA5-5)
R:Menuett
O:Småland
B:[[http://www.smus.se/earkiv/fmk/browselarge.php?lang=sw&katalogid=Ma+5&bildnr=00007|MA5, låt 5, sida 7]]
B:Sven Donats notbok
N:Jmf. SvL Dalarna 1025 (?)
Z:Jonas Brunskog
Q:1/4=140
M:3/4
L:1/8
K:D
|:A2 d2 f2|e2 dc d2|d2 f2 a2|g2 fe f2|d2 AAAA|e2 AAAA|fgadcd|e6:|
|:A2 c2 e2|d2 cB c2|e2 cA e2|fafd e2|{de}dc A2 B2| A6|a2 g2 f2|A,2 A,A,A,A,|
g2 f2 e2| A,2 A,A,A,A,| A2 d2 f2|e2 dc d2|d2 f2 a2|gfge f2|FG A2 AG|FG A2 Bc|d2 F2 E2|D6:|
(:musicend:)
(:music:)
